svg/rollupjs.svg

<svg xmlns="http://www.w3.org/2000/svg" viewBox="0 0 24 24"><path d="M19.46 8.64c0 2.47-1.35 4.62-3.34 5.76-.12.1-.19.26-.12.41l3.41 6.74c.09.21-.05.45-.28.45H6.1l.07-.04c.49-.28 3.89-6.99 7.21-10.17s3.74-2.12 1.91-5.58c0 0 1.41 2.75.21 2.96-.94.17-3.1-1.92-2.3-3.8.8-1.84 3.95-1.49 5.4.01.55.96.86 2.07.86 3.26m-12.3 4.49c-1.32 2.43-2.16 4.2-2.62 5.44V2.31c0-.17.14-.31.31-.31h8.07a6.62 6.62 0 0 1 5.54 3.15C17.62 4.1 16.3 3.5 15 3.5c-2.47 0-3.09.9-7.84 9.63"/></svg>

<?xml version="1.0" encoding="UTF-8"?><!DOCTYPE svg PUBLIC "-//W3C//DTD SVG 1.1//EN" "http://www.w3.org/Graphics/SVG/1.1/DTD/svg11.dtd"><svg xmlns="http://www.w3.org/2000/svg" xmlns:xlink="http://www.w3.org/1999/xlink" version="1.1" id="mdi-rollupjs" width="24" height="24" viewBox="0 0 24 24"><path d="M19.46,8.64C19.46,11.11 18.11,13.26 16.12,14.4C16,14.5 15.93,14.66 16,14.81L19.41,21.55C19.5,21.76 19.36,22 19.13,22H6.1L6.17,21.96C6.66,21.68 10.06,14.97 13.38,11.79C16.7,8.61 17.12,9.67 15.29,6.21C15.29,6.21 16.7,8.96 15.5,9.17C14.56,9.34 12.4,7.25 13.2,5.37C14,3.53 17.15,3.88 18.6,5.38C19.15,6.34 19.46,7.45 19.46,8.64M7.16,13.13C5.84,15.56 5,17.33 4.54,18.57V2.31C4.54,2.14 4.68,2 4.85,2H12.92C15.26,2.04 17.31,3.28 18.46,5.15C17.62,4.1 16.3,3.5 15,3.5C12.53,3.5 11.91,4.4 7.16,13.13Z" /></svg>
